img/svg/online-school/book.svg

<svg width="24" height="24" viewBox="0 0 24 24" fill="none" xmlns="http://www.w3.org/2000/svg">
<path fill-rule="evenodd" clip-rule="evenodd" d="M0 3.74994C3.98571e-05 3.606 0.0415 3.46511 0.119432 3.34409C0.197363 3.22307 0.308474 3.12704 0.4395 3.06744C1.8675 2.41794 4.1595 1.63944 6.4305 1.40994C8.3805 1.21494 10.5225 1.40394 12 2.67444C13.4775 1.40394 15.6195 1.21344 17.5695 1.40994C19.8405 1.63944 22.1325 2.41794 23.5605 3.06744C23.6915 3.12704 23.8026 3.22307 23.8806 3.34409C23.9585 3.46511 24 3.606 24 3.74994V20.2499C24 20.3754 23.9684 20.4989 23.9083 20.6091C23.8482 20.7192 23.7614 20.8125 23.6559 20.8804C23.5504 20.9483 23.4295 20.9887 23.3043 20.9978C23.1792 21.0069 23.0537 20.9844 22.9395 20.9324C21.618 20.3324 19.485 19.6109 17.418 19.4024C15.306 19.1894 13.5345 19.5329 12.585 20.7179C12.5147 20.8055 12.4257 20.8762 12.3244 20.9248C12.2232 20.9734 12.1123 20.9986 12 20.9986C11.8877 20.9986 11.7768 20.9734 11.6756 20.9248C11.5743 20.8762 11.4853 20.8055 11.415 20.7179C10.4655 19.5329 8.694 19.1894 6.5805 19.4024C4.515 19.6109 2.3835 20.3324 1.0605 20.9324C0.946271 20.9844 0.820833 21.0069 0.695675 20.9978C0.570517 20.9887 0.44964 20.9483 0.344116 20.8804C0.238593 20.8125 0.151796 20.7192 0.0916756 20.6091C0.0315557 20.4989 3.4743e-05 20.3754 0 20.2499V3.74994ZM6.4305 17.9099C7.75112 17.777 9.16127 17.8222 10.3929 18.2603C10.6902 18.3661 10.9772 18.4948 11.25 18.6494V4.03044C10.269 2.99694 8.577 2.70144 6.582 2.90244C4.731 3.08844 2.8275 3.68694 1.5 4.24194V19.1264C1.77091 19.023 2.05771 18.9202 2.35714 18.8202C3.57804 18.4128 5.00911 18.0545 6.4305 17.9099ZM11.9886 20.0676C11.9924 20.072 11.9962 20.0764 12 20.0808C12.004 20.0761 12.0081 20.0714 12.0121 20.0667L12.0011 20.0605L11.9886 20.0676ZM12.75 4.03044C13.731 2.99694 15.423 2.70144 17.418 2.90244C19.269 3.08844 21.1725 3.68694 22.5 4.24194V19.1264C22.229 19.0231 21.9422 18.9202 21.6429 18.8203C20.4214 18.4125 18.9911 18.0536 17.5695 17.9114C16.2477 17.7773 14.8384 17.8213 13.6071 18.2597C13.3098 18.3656 13.0228 18.4945 12.75 18.6494V4.03044Z" fill="#FBFBFB"/>
</svg>

<svg width="24" height="24" fill="none" xmlns="http://www.w3.org/2000/svg"><path fill-rule="evenodd" clip-rule="evenodd" d="M0 3.75a.75.75 0 01.44-.683c1.427-.65 3.72-1.428 5.99-1.657 1.95-.195 4.093-.006 5.57 1.264 1.477-1.27 3.62-1.46 5.57-1.264 2.27.23 4.563 1.008 5.99 1.657a.75.75 0 01.44.683v16.5a.75.75 0 01-1.06.682c-1.322-.6-3.455-1.321-5.522-1.53-2.112-.213-3.883.13-4.833 1.316a.75.75 0 01-1.17 0c-.95-1.185-2.721-1.529-4.834-1.316-2.066.209-4.197.93-5.52 1.53A.75.75 0 010 20.25V3.75zm6.43 14.16c1.321-.133 2.731-.088 3.963.35.297.106.584.235.857.39V4.03c-.981-1.033-2.673-1.329-4.668-1.128-1.851.186-3.754.785-5.082 1.34v14.884c.27-.103.558-.206.857-.306 1.221-.407 2.652-.765 4.074-.91zm5.559 2.158l.011.013.012-.014-.01-.006-.013.007zM12.75 4.03c.981-1.033 2.673-1.329 4.668-1.128 1.851.186 3.755.785 5.082 1.34v14.884a21.7 21.7 0 00-.857-.306c-1.222-.407-2.652-.766-4.073-.909-1.322-.134-2.732-.09-3.963.349a5.408 5.408 0 00-.857.39V4.03z" fill="#FBFBFB"/></svg>
